contact_media/linkedin_icon.svg

<svg width="38" height="38" viewBox="0 0 38 38" fill="none" xmlns="http://www.w3.org/2000/svg">
<g clip-path="url(#clip0_189_10628)">
<path d="M33.1067 0.876923C34.197 0.876923 35.2427 1.31006 36.0137 2.08104C36.7846 2.85202 37.2178 3.8977 37.2178 4.98803V33.7658C37.2178 34.8561 36.7846 35.9018 36.0137 36.6728C35.2427 37.4438 34.197 37.8769 33.1067 37.8769H4.32888C3.23855 37.8769 2.19287 37.4438 1.42189 36.6728C0.650907 35.9018 0.217773 34.8561 0.217773 33.7658V4.98803C0.217773 3.8977 0.650907 2.85202 1.42189 2.08104C2.19287 1.31006 3.23855 0.876923 4.32888 0.876923H33.1067ZM32.0789 32.738V21.8436C32.0789 20.0663 31.3729 18.3619 30.1162 17.1052C28.8595 15.8485 27.155 15.1425 25.3778 15.1425C23.6306 15.1425 21.5956 16.2114 20.6089 17.8147V15.533H14.8739V32.738H20.6089V22.6041C20.6089 21.0214 21.8833 19.7264 23.4661 19.7264C24.2293 19.7264 24.9613 20.0296 25.501 20.5692C26.0407 21.1089 26.3439 21.8409 26.3439 22.6041V32.738H32.0789ZM8.19333 12.3058C9.10921 12.3058 9.98758 11.942 10.6352 11.2944C11.2828 10.6467 11.6467 9.76836 11.6467 8.85248C11.6467 6.94081 10.105 5.37859 8.19333 5.37859C7.272 5.37859 6.3884 5.74459 5.73692 6.39607C5.08544 7.04755 4.71944 7.93115 4.71944 8.85248C4.71944 10.7641 6.28166 12.3058 8.19333 12.3058ZM11.0506 32.738V15.533H5.35666V32.738H11.0506Z" fill="#F8F8F8"/>
</g>
<defs>
<clipPath id="clip0_189_10628">
<rect width="37" height="37" fill="white" transform="translate(0.217773 0.876923)"/>
</clipPath>
</defs>
</svg>

<?xml version="1.0" encoding="utf-8"?>
<!-- Generator: Adobe Illustrator 24.2.1, SVG Export Plug-In . SVG Version: 6.00 Build 0)  -->
<svg version="1.1" id="Layer_1" xmlns="http://www.w3.org/2000/svg" xmlns:xlink="http://www.w3.org/1999/xlink" x="0px" y="0px"
	 viewBox="0 0 38 38" style="enable-background:new 0 0 38 38;" xml:space="preserve">
<style type="text/css">
	.st0{clip-path:url(#SVGID_2_);}
</style>
<g>
	<defs>
		<rect id="SVGID_1_" x="0.2" y="0.9" width="37" height="37"/>
	</defs>
	<clipPath id="SVGID_2_">
		<use xlink:href="#SVGID_1_"  style="overflow:visible;"/>
	</clipPath>
	<g class="st0">
		<path d="M33.1,0.9c1.1,0,2.1,0.4,2.9,1.2c0.8,0.8,1.2,1.8,1.2,2.9v28.8c0,1.1-0.4,2.1-1.2,2.9c-0.8,0.8-1.8,1.2-2.9,1.2H4.3
			c-1.1,0-2.1-0.4-2.9-1.2c-0.8-0.8-1.2-1.8-1.2-2.9V5c0-1.1,0.4-2.1,1.2-2.9c0.8-0.8,1.8-1.2,2.9-1.2H33.1z M32.1,32.7V21.8
			c0-1.8-0.7-3.5-2-4.7c-1.3-1.3-3-2-4.7-2c-1.7,0-3.8,1.1-4.8,2.7v-2.3h-5.7v17.2h5.7V22.6c0-1.6,1.3-2.9,2.9-2.9
			c0.8,0,1.5,0.3,2,0.8c0.5,0.5,0.8,1.3,0.8,2v10.1H32.1z M8.2,12.3c0.9,0,1.8-0.4,2.4-1c0.6-0.6,1-1.5,1-2.4c0-1.9-1.5-3.5-3.5-3.5
			c-0.9,0-1.8,0.4-2.5,1s-1,1.5-1,2.5C4.7,10.8,6.3,12.3,8.2,12.3z M11.1,32.7V15.5H5.4v17.2H11.1z"/>
	</g>
</g>
</svg>
